X: 4
T: The Flying Wheelchair
R: jig
M: 6/8
L: 1/8
K: Gmaj
~G3 GED|EAA ABd|efg edB|Aee edB|
~G3 GED|EAA ABd|efg edB|ABG EDE:|
|:GAB ~d3|deB dBA|GAE ~e3|efg edB|
GBd efg|eaf gab|age dBG|ABG EDE:|
